icon-themes/sifr_svg/cmd/lc_romanlowliststyle.svg

<svg viewBox="0 0 24 24" xmlns="http://www.w3.org/2000/svg"><path d="m6 2v2h2v-2zm5 1v2h11v-2zm-5 2v6h2v-6zm5 2v2h7v-2zm-8 6v2h2v-2zm3 0v2h2v-2zm5 1v2h11v-2zm-8 2v6h2v-6zm3 0v6h2v-6zm5 2v2h5v-2z" fill="#555753"/></svg>

<svg xmlns="http://www.w3.org/2000/svg" viewBox="0 0 24 24">
  <path
     style="fill:#555753"
     d="M 6 2 L 6 4 L 8 4 L 8 2 L 6 2 z M 11 3 L 11 5 L 22 5 L 22 3 L 11 3 z M 6 5 L 6 11 L 8 11 L 8 5 L 6 5 z M 11 7 L 11 9 L 18 9 L 18 7 L 11 7 z M 3 13 L 3 15 L 5 15 L 5 13 L 3 13 z M 6 13 L 6 15 L 8 15 L 8 13 L 6 13 z M 11 14 L 11 16 L 22 16 L 22 14 L 11 14 z M 3 16 L 3 22 L 5 22 L 5 16 L 3 16 z M 6 16 L 6 22 L 8 22 L 8 16 L 6 16 z M 11 18 L 11 20 L 16 20 L 16 18 L 11 18 z "
     />
</svg>
